X: 163
T:Crucifixus
N: Derived from Jos1312-Crucifixus.krn
C: Josquin des Prez
%%abc-version 2.0
%%abcx-abcm2ps-target-version 5.9.1 (29 Sep 2008)
%%abc-creator hum2abc beta
%%abcx-conversion-date 2019/02/12 16:15:46
%%abc-edited-by Jesse Rodin
%%abcx-initial-encoding-date 2012/08/15/
%%humdrum-veritas 486390923
%%humdrum-veritas-data 3443718875
%%linebreak <none>
%%barnumbers 0
L: 1/4
M: 2/1
Q: 1/2=120
%%staves {1 2}
V: 1 clef=treble-8
V: 2 clef=bass
K: C
[V:1] G4G2c2- | 
[V:2] z4C,4 | 
[V:1] c2A2A4 | 
[V:2] C,2F,4D,2 | 
[V:1] z2A4A2 | 
[V:2] D,4z2D,2- | 
[V:1] A2A2B3A/G/ | 
[V:2] D,2D,2G,2G,2 | 
[V:1] G4z2c2- | 
[V:2] E,3D,/C,/C,4 | 
[V:1] c2A2A2d2- | 
[V:2] F,4D,2D,2 | 
[V:1] dcBAG2A2- | 
[V:2] G,3F,E,D,C,2 | 
[V:1] A2G4F2 | 
[V:2] D,2B,,2A,,4 | 
[V:1] GFEDE4 | 
[V:2] G,,2D,2D,2C,2 | 
[V:1] D2A2A2G2 | 
[V:2] D,C,B,,A,,B,,4 | 
[V:1] A2F2E2e2- | 
[V:2] A,,2A,2A,2G,2 | 
[V:1] e2d3^c/B/^c2 | 
[V:2] A,2F,2E,4 | 
[V:1] d2B2A4 | 
[V:2] D,2G,4F,2 | 
[V:1] G3FEDC2- | 
[V:2] E,2G,3F,E,D, | 
[V:1] C2c4B2 | 
[V:2] C,4D,4 | 
[V:1] c4z4 | 
[V:2] A,3G,F,E,D,2- | 
[V:1] z2A4G2 | 
[V:2] D,2C,2D,2B,,2 | 
[V:1] A2F2E4 | 
[V:2] A,,2A,4G,2- | 
[V:1] D4z2A2- | 
[V:2] G,2F,2G,2C,2- | 
[V:1] A2G4F2 | 
[V:2] C,2B,,2C,2A,,2 | 
[V:1] G2E2D4 | 
[V:2] G,,2G,4F,2 | 
[V:1] C2c3B/A/B2 | 
[V:2] E,2D,C,D,2C,B,, | 
[V:1] c2A2G3A | 
[V:2] A,,B,,C,D,E,F,G,2- | 
[V:1] B2A4G2- | 
[V:2] G,2C,2B,,2C,2 | 
[V:1] G2^F2G4 ||  
[V:2] A,,4G,,4 ||  



